shader_type canvas_item;
uniform vec4 color : source_color;

void vertex() {
	// Called for every vertex the material is visible on.
}

void fragment() {
	COLOR.rgb = color.rgb;
	COLOR.a *= color.a;
}

//void light() {
	// Called for every pixel for every light affecting the CanvasItem.
	// Uncomment to replace the default light processing function with this one.
//}
